X:5225
T:Finbar Dwyer's
R:reel
S:
H:
N:part 2, bar 3, last note possibly d/B also
D:Liz Carroll/Tommy Maguire: Kiss Me Kate
Z:Adrian Scahill
M:4/4
L:1/8
K:D
A,2CA, EA,CA,|G,3A, B,A, (3B,CD|EA,CE ABAG|EB,DB, A,2AG|\
EAAG EAGE|DB,ED B,A, (3B,CD|EA,CE ABAG|EB,DB, A,3A:||\
EAA2 EAAF|G2DG dG (3BAG|EAA2 fAec|AGED B,DA,G|\
EAA2 fAeA|EAec d2ed|c3A (3Bcd BA|^GEDB, A,3=G:||\


